icon-svg/smart-plug-it.svg

<svg xmlns="http://www.w3.org/2000/svg" viewBox="0 0 24 24"><path fill="#44739e" d="M16.644 15.094c.014 2.074.205 4.774.987 6.066a1 1 0 0 0 .041-.205V5.663c-.744 1.288-1.072 3.218-1.028 9.431m-9.287-.002c.043-6.213-.285-8-1.029-9.292v15.155a1 1 0 0 0 .041.2c.782-1.288.973-3.989.988-6.063M12 15.57a.7.7 0 1 0 .706.706.707.707 0 0 0-.706-.706m0-2.987a3.693 3.693 0 1 0 3.693 3.693A3.7 3.7 0 0 0 12 12.583m0 .764a.551.551 0 1 1-.551.551.55.55 0 0 1 .551-.551m0 5.853a.55.55 0 1 1 .551-.549.55.55 0 0 1-.551.549m0-2a.925.925 0 1 1 .925-.923.924.924 0 0 1-.925.923m1.366-11.299A1.366 1.366 0 0 1 12 7.267a1.366 1.366 0 0 1-1.366-1.366A1.366 1.366 0 0 1 12 4.535a1.366 1.366 0 0 1 1.366 1.366m3.058 9.193c-.043-6.261.484-8.435 1.248-9.755V3.045A1.044 1.044 0 0 0 16.628 2H7.372a1.044 1.044 0 0 0-1.044 1.045v2.328c.764 1.32 1.291 3.457 1.248 9.719-.015 2.163-.215 5.012-1.082 6.3l-.089-.06a1.04 1.04 0 0 0 .967.668h9.256a1.04 1.04 0 0 0 .967-.66l-.088.059c-.867-1.293-1.068-4.142-1.083-6.305M12 4.1a1.806 1.806 0 1 1-1.8 1.8A1.81 1.81 0 0 1 12 4.1m0 16.312a4.133 4.133 0 1 1 4.132-4.131A4.135 4.135 0 0 1 12 20.407Z"/></svg>

<svg xmlns="http://www.w3.org/2000/svg"  fill="#44739e"  width="24" height="24" viewBox="0 0 24 24">
  <path id="Colore_riempimento_1" data-name="Colore riempimento 1" class="cls-1" d="m 16.644,15.094 c 0.014,2.074 0.205,4.774 0.987,6.066 a 0.993,0.993 0 0 0 0.041,-0.205 V 5.663 C 16.928,6.951 16.6,8.881 16.644,15.094 Z M 7.357,15.092 C 7.4,8.879 7.072,7.092 6.328,5.8 v 15.155 a 0.984,0.984 0 0 0 0.041,0.2 C 7.151,19.867 7.342,17.166 7.357,15.092 Z M 12,15.57 A 0.7,0.7 0 1 0 12.706,16.276 0.707,0.707 0 0 0 12,15.57 Z m 0,-2.987 A 3.693,3.693 0 1 0 15.693,16.276 3.7,3.7 0 0 0 12,12.583 Z m 0,0.764 A 0.551,0.551 0 1 1 11.449,13.898 0.552,0.552 0 0 1 12,13.347 Z M 12,19.2 A 0.55,0.55 0 1 1 12.551,18.651 0.55,0.55 0 0 1 12,19.2 Z m 0,-2 A 0.925,0.925 0 1 1 12.925,16.277 0.924,0.924 0 0 1 12,17.2 Z M 13.366,5.901 A 1.3660001,1.3660001 0 0 1 12,7.2670001 1.3660001,1.3660001 0 0 1 10.634,5.901 1.3660001,1.3660001 0 0 1 12,4.535 1.3660001,1.3660001 0 0 1 13.366,5.901 Z m 3.058,9.193 C 16.381,8.833 16.908,6.659 17.672,5.339 V 3.045 A 1.044,1.044 0 0 0 16.628,2 H 7.372 A 1.044,1.044 0 0 0 6.328,3.045 v 2.328 c 0.764,1.32 1.291,3.457 1.248,9.719 -0.015,2.163 -0.215,5.012 -1.082,6.3 L 6.405,21.332 A 1.04,1.04 0 0 0 7.372,22 h 9.256 a 1.042,1.042 0 0 0 0.967,-0.66 l -0.088,0.059 C 16.64,20.106 16.439,17.257 16.424,15.094 Z M 12,4.1 A 1.806,1.806 0 1 1 10.2,5.9 1.808,1.808 0 0 1 12,4.1 Z m 0,16.312 A 4.133,4.133 0 1 1 16.132,16.281 4.135,4.135 0 0 1 12,20.407 Z"/>
</svg>
